src/status/32/apport.svg

<svg width="32" height="32" version="1.1" xmlns="http://www.w3.org/2000/svg">
 <style id="current-color-scheme" type="text/css">.ColorScheme-Text {
        color:#f2f2f2;
      }</style>
 <g id="apport" transform="translate(-22)">
  <path class="ColorScheme-Text" d="m29 4c-1.662 0-3 1.338-3 3v18c0 1.662 1.338 3 3 3h18c1.662 0 3-1.338 3-3v-18c0-1.662-1.338-3-3-3h-18zm0 1h18c1.108 0 2 0.892 2 2v18c0 1.108-0.892 2-2 2h-18c-1.108 0-2-0.892-2-2v-18c0-1.108 0.892-2 2-2zm0 2v2h2v-2h-2zm2 2v3h3v-3h-3zm3 0h2v-2h-2v2zm0 3v2h2v-2h-2zm-3 0h-2v2h2v-2zm9-5v2h2v-2h-2zm2 2v3h3v-3h-3zm3 0h2v-2h-2v2zm0 3v2h2v-2h-2zm-3 0h-2v2h2v-2zm-8 5v2h8v-2h-8zm8 2v2h2v-2h-2zm2 2v2h2v-2h-2zm-10-2h-2v2h2v-2zm-2 2h-2v2h2v-2z" fill="currentColor"/>
  <path d="m22 0v32h32v-32h-32z" fill="none"/>
 </g>
</svg>

<?xml version="1.0" encoding="UTF-8"?>
<svg xmlns="http://www.w3.org/2000/svg" xmlns:xlink="http://www.w3.org/1999/xlink" xmlns:cc="http://creativecommons.org/ns#" xmlns:dc="http://purl.org/dc/elements/1.1/" xmlns:rdf="http://www.w3.org/1999/02/22-rdf-syntax-ns#" xmlns:inkscape="http://www.inkscape.org/namespaces/inkscape" xmlns:sodipodi="http://sodipodi.sourceforge.net/DTD/sodipodi-0.dtd" width="32" height="32">
    <style type="text/css" id="current-color-scheme">
      .ColorScheme-Text {
        color:#f2f2f2;
      }
      </style>
    <g id="apport" transform="translate(-22,0)">
    <path id="path12" class="ColorScheme-Text" d="M 26 4 L 26 28 L 50 28 L 50 4 L 26 4 z M 27 5 L 49 5 L 49 27 L 27 27 L 27 5 z M 29 7 L 29 9 L 31 9 L 31 7 L 29 7 z M 31 9 L 31 12 L 34 12 L 34 9 L 31 9 z M 34 9 L 36 9 L 36 7 L 34 7 L 34 9 z M 34 12 L 34 14 L 36 14 L 36 12 L 34 12 z M 31 12 L 29 12 L 29 14 L 31 14 L 31 12 z M 40 7 L 40 9 L 42 9 L 42 7 L 40 7 z M 42 9 L 42 12 L 45 12 L 45 9 L 42 9 z M 45 9 L 47 9 L 47 7 L 45 7 L 45 9 z M 45 12 L 45 14 L 47 14 L 47 12 L 45 12 z M 42 12 L 40 12 L 40 14 L 42 14 L 42 12 z M 34 17 L 34 19 L 42 19 L 42 17 L 34 17 z M 42 19 L 42 21 L 44 21 L 44 19 L 42 19 z M 44 21 L 44 23 L 46 23 L 46 21 L 44 21 z M 34 19 L 32 19 L 32 21 L 34 21 L 34 19 z M 32 21 L 30 21 L 30 23 L 32 23 L 32 21 z " style="fill:currentColor;fill-opacity:1;stroke:none"/>
    <path id="path14" d="M 22 0 L 22 32 L 54 32 L 54 0 L 22 0 z " style="opacity:1;fill:none"/>
  </g>
</svg>
